X: 12858
T: Fermanagh, The
R: strathspey
M: 4/4
K: Dmajor
dB|:A2 FD AddB|A2 FD EFGB|
A2 FA A2 FA|1 BGEG FDdB:|2 BGEG FDD2||
dAFA fffe|dAFA Beec|dAFA fffA|
GFEF GABc|dAFA fffe|dAFA Beec|
d2 cd BcA2|(3Bcd ec d2||

